!!!COM: Palestrina, Giovanni Perluigi da
!!!OPR: Missa Salve regina
!!!OTL: Agnus II
**kern	**kern	**kern	**kern	**kern
*Ibass	*Itenor	*Icalto	*Icalto	*Icant
!Bassus	!Tenor	!Altus 2	!Altus 1	!Cantus
*clefF4	*clefGv2	*clefG2	*clefG2	*clefG2
*k[b-]	*k[b-]	*k[b-]	*k[b-]	*k[b-]
*G:dor	*G:dor	*G:dor	*G:dor	*G:dor
*M4/2	*M4/2	*M4/2	*M4/2	*M4/2
=1	=1	=1	=1	=1
0r	0r	1g	1r	0r
.	.	2g	1g	.
.	.	[2b-	.	.
=2	=2	=2	=2	=2
0r	0r	4b-]	2g	1g
.	.	4a	.	.
.	.	1g	1b-	.
.	.	.	.	1dd
.	.	2f	2a	.
=3	=3	=3	=3	=3
0r	0r	2.e-	2g	0ee-
.	.	.	1b-	.
.	.	4d	.	.
.	.	1c	.	.
.	.	.	2a	.
=4	=4	=4	=4	=4
1G	0r	0B-	2.b-	1dd
.	.	.	4a	.
2G	.	.	2g	1dd
[2B-	.	.	2f	.
=5	=5	=5	=5	=5
2B-]	0r	2r	2g	1cc
2A	.	2f	2a	.
1G	.	2g	1d	1b-
.	.	[2b-	.	.
=6	=6	=6	=6	=6
1F	0r	2b-]	2f	1cc
.	.	2a	2c	.
2.E-	.	4b-	[1e-	[1g
.	.	4a	.	.
.	.	4g	.	.
4D	.	4f	.	.
=7	=7	=7	=7	=7
1C	0r	4e-	1e-]	2g]
.	.	4d	.	.
.	.	2c	.	2a
[1G	.	2.B-	[1d	[1b-
.	.	4c	.	.
=8	=8	=8	=8	=8
1G]	1G	4d	1d]	2b-]
.	.	4G	.	.
.	.	1g	.	4a
.	.	.	.	4g
1r	1d	.	1r	1a
.	.	2f#	.	.
=9	=9	=9	=9	=9
0r	0e-	2g	2r	1g
.	.	2.b-	2g	.
.	.	.	2g	1r
.	.	4a	.	.
.	.	[2g	[2b-	.
=10	=10	=10	=10	=10
0r	1d	2g]	2b-]	2r
.	.	4f	4a	2dd
.	.	4e	4g	.
.	1d	4f	2a	2dd
.	.	4g	.	.
.	.	4a	2f	[2ff
.	.	4b-	.	.
=11	=11	=11	=11	=11
1C	1c	2cc	1g	2ff]
.	.	2c	.	2ee-
1G	1B-	1d	2r	1dd
.	.	.	[2g	.
=12	=12	=12	=12	=12
1C	1c	1g	2g]	1cc
.	.	.	2.e-	.
2.E-	[1G	[1g	.	1b-
.	.	.	8d	.
.	.	.	8c	.
.	.	.	2B-	.
4D	.	.	.	.
=13	=13	=13	=13	=13
1C	2G]	2g]	1c	1ee-
.	2A	2c	.	.
2.BB-	[1B-	2.f	2.d	[1dd
4C	.	4e	4e	.
=14	=14	=14	=14	=14
0D	2B-]	[0d	2f	0dd]
.	4A	.	1g	.
.	4G	.	.	.
.	1A	.	.	.
.	.	.	2f#	.
=15	=15	=15	=15	=15
1r	1G	1d]	1g	1b
1D	1d	1f	1a	1r
=16	=16	=16	=16	=16
1A	1c#	1e	1a	1r
2D	1d	2f	1a	2r
2d	.	2f	.	2a
=17	=17	=17	=17	=17
2d	2f	2f	0r	2b-
2c	1g	2e	.	2cc
2.B-	.	2.d	.	2dd
.	2f	.	.	2dd
4A	.	4c	.	.
=18	=18	=18	=18	=18
2G	2e	4B-	1r	2ee
.	.	4G	.	.
2F	1d	2A	.	2ff
1E	.	1G	1g	1gg
.	2c#	.	.	.
=19	=19	=19	=19	=19
1D	1d	2A	1f#	0r
.	.	2a	.	.
1r	2r	[1b-	1g	.
.	2g	.	.	.
=20	=20	=20	=20	=20
1r	2g	2b-]	2b-	0r
.	2f	2a	1cc	.
2r	2.e-	2.g	.	.
2G	.	.	2b-	.
.	4d	4f	.	.
=21	=21	=21	=21	=21
2A	2c	2e	2a	0r
2B-	2B-	2d	1g	.
1c	1A	2c	.	.
.	.	2cc	2f#	.
=22	=22	=22	=22	=22
2r	2G	2cc	1g	1dd
2G	2g	2b-	.	.
1A	2e	2.a	1r	1cc#
.	[2a	.	.	.
.	.	4g	.	.
=23	=23	=23	=23	=23
2D	4a]	1.f	2r	1dd
.	4g	.	.	.
2d	4f	.	2a	.
.	4e	.	.	.
2d	2d	.	2a	2ff
2c	2e	2e	2cc	[2gg
=24	=24	=24	=24	=24
2.B-	1f	1d	1dd	2gg]
.	.	.	.	2ff
4A	.	.	.	.
1G	2.g	1r	2b-	2ee
.	.	.	2b-	[2dd
.	4f	.	.	.
=25	=25	=25	=25	=25
0A	1.e	1r	1a	2dd]
.	.	.	.	4cc#
.	.	.	.	4b
.	.	2r	2.a	1cc#
.	2A	[2a	.	.
.	.	.	4g	.
=26	=26	=26	=26	=26
2r	1B-	2a]	2f	1dd
1d	.	2g	4e	.
.	.	.	4d	.
.	1A	[1a	1e	1r
2c#	.	.	.	.
=27	=27	=27	=27	=27
1d	1r	2a]	1f	0r
.	.	2d	.	.
2G	2r	2.b-	2g	.
[2B-	[2d	.	2f	.
.	.	4a	.	.
=28	=28	=28	=28	=28
2B-]	2d]	2g	2g	0r
2A	2c	1f	2a	.
1G	2d	.	1b-	.
.	4B-	2e	.	.
.	4c	.	.	.
=29	=29	=29	=29	=29
2.F	4d	1f	2r	1r
.	4e	.	.	.
.	2f	.	1a	.
4G	.	.	.	.
2A	2e	1r	.	2r
2B-	2d	.	2g	[2dd
=30	=30	=30	=30	=30
1A	1e	2r	1.a	2dd]
.	.	2e	.	2cc#
1D	1d	2.f	.	1dd
.	.	.	2d	.
.	.	4d	.	.
=31	=31	=31	=31	=31
0r	2r	2e-	2.b-	2g
.	2G	1d	.	1b-
.	.	.	4a	.
.	2G	.	2g	.
.	2A	2c	[2f	2a
=32	=32	=32	=32	=32
0r	2B-	2d	2f]	1g
.	2c	2c	2e	.
.	2F	2r	[1f	2a
.	4B-	4d	.	[2dd
.	4c	4e	.	.
=33	=33	=33	=33	=33
2r	4d	4f	1f]	2dd]
.	4e	4g	.	.
4F	1f	1a	.	2cc
4G	.	.	.	.
4A	.	.	2r	1cc
4B-	.	.	.	.
[2c	2e	2g	4c	.
.	.	.	4d	.
=34	=34	=34	=34	=34
2c]	2c	1g	4e	0r
.	.	.	4f	.
2B	2d	.	1g	.
2c	2e	1a	.	.
2d	[2d	.	2f#	.
=35	=35	=35	=35	=35
2G	2d]	2b-	2g	0r
2F	2.f	4a	2a	.
.	.	4g	.	.
1B-	.	2f	1d	.
.	4e	.	.	.
.	[2d	2g	.	.
=36	=36	=36	=36	=36
1A	2d]	[0a	1e	1r
.	2c#	.	.	.
2D	1d	.	2.f	2r
2D	.	.	.	4f
.	.	.	4e	4g
=37	=37	=37	=37	=37
2.F	1r	1a]	2d	4a
.	.	.	.	4b-
.	.	.	2c	1cc
4E	.	.	.	.
1D	2.F	2r	1d	.
.	.	[2f	.	2b
.	4G	.	.	.
=38	=38	=38	=38	=38
1C	4A	2f]	0r	1cc
.	4B-	.	.	.
.	1c	2e	.	.
2.G	.	2.d	.	2dd
.	2B-	.	.	2g
4G	.	4e	.	.
=39	=39	=39	=39	=39
2F	2c	1f	2r	2a
2D	2d	.	2d	1b-
1E-	2.G	1g	2B-	.
.	.	.	2c	4a
.	4A	.	.	4g
=40	=40	=40	=40	=40
0D	1B-	2f	1d	0dd
.	.	1g	.	.
.	4A	.	1d	.
.	4G	.	.	.
.	2A	2f#	.	.
=41	=41	=41	=41	=41
0G	0G	0g	0d	0b
==	==	==	==	==
*-	*-	*-	*-	*-
!!!CDT: 1525/^1526/-1594/2/2
!!!OCY: Italia
!!!AGN: Mass (Paraphrase)
!!!AST: renaissance, vocal
!!!ASW: Antiphon
!!!PWK: Masses, Book 11
!!!RNB: Cadence finals: D
!!!YOR: Le Opere Complete, v. 28, p. 185
!!!YOO: Rome, Italy: Fratelli Scalera
!!!END: 1992//
!!!EED: John Miller
!!!YEC: Copyright 2000, John Miller
!!!YEN: United States of America
!!!YEM: Rights to all derivative electronic formats reserved.
!!!YEM: Refer to licensing agreement for further details.
!!!YEM: This file must be accompanied by the licensing agreement.
!!!YEM: A copy of the licensing agreement may be found at http://www.music-cog.ohio-state.edu/HumdrumDatabases/Palestrina/license.txt
!!!EMD: converted to Humdrum by Bret Aarden
